X:2
T:Anything for John Joe
R:reel
O:Ireland
M:4/4
L:1/8
K:D
A | F2 AF G2 BG | F z AF EFDE | F2 AF G2 BG | ABcA   d3 :|
e | f2 fg  fede | faaf   efde | f2 af  efed | cABc d3 e |
    f2 fg  fede | faaf   efde | fefg  a3  A | ABcA   d3 |]
\end{abc}
\addcontentsline{toc}{subsection}{Banshee, The}
\begin{abc}[name=banshee]
